!!!COM:	de Orto, Marbrianus
!!!CDT:	~1460///-1529//
!!!OPR:	Missa Dominicalis
!!!ONM:	5
!!!OTL:	Agnus Dei
!!!AGN:	Mass; Agnus Dei
!!!SCT:	Ort1001e
!!!SCA:	Ort1001e
!!!voices:	4
!!!voices-OPR:	4
**kern	**kern	**kern	**kern
*staff4	*staff3	*staff2	*staff1
*Ivox	*Ivox	*Ivox	*Ivox
*I"Bassus	*I"Tenor	*I"Altus	*I"Discantus
*I'B	*I'T	*I'A	*I'D
*>[A,B,C]	*>[A,B,C]	*>[A,B,C]	*>[A,B,C]
*>A	*>A	*>A	*>A
*clefF4	*clefGv2	*clefGv2	*clefG2
*k[b-]	*k[b-]	*k[b-]	*k[b-]
*M3/1	*M3/1	*M3/1	*M3/1
*met(O)	*met(O)	*met(O)	*met(O)
!!section: Agnus Dei I
!!!OMD: Agnus Dei I
=1-	=1-	=1-	=1-
0.r	0.r	1.G	[0.g
.	.	1c	.
.	.	2B-\	.
=2	=2	=2	=2
0.r	0.r	2c\	1g]
.	.	1e-i	.
.	.	.	0b-
.	.	2d\	.
.	.	2G/	.
.	.	[2d\	.
=3	=3	=3	=3
0.r	0.r	2d\]	1a
.	.	2c\	.
.	.	2B-\	2g/
.	.	2A/	2.a/
.	.	2B-\	.
.	.	.	4f/
.	.	4A/	2g/
.	.	4G/	.
=4	=4	=4	=4
1.D	0.r	2F/	1a
.	.	2.f\	.
.	.	.	1r
.	.	4d\	.
2C/	.	1g	.
1D	.	.	1a
.	.	2f#i\	.
=5	=5	=5	=5
1E	0.r	1g	1g
2.F\	.	2a\	0cc
.	.	4g\	.
4E\	.	4f\	.
1C	.	1e	.
=6	=6	=6	=6
2.G\	0.r	0d	2.b-\
4A\	.	.	4a/
1B-	.	.	2g/
.	.	.	2f/
2E-i\	.	2r	2g/
2D\	.	2f\	2a/
=7	=7	=7	=7
2C/	0.r	2e\	2cc\
1G	.	1d	2.b-\
.	.	.	4a/
2A\	.	2c\	1a
1B-	.	1d	.
.	.	.	2g/
=8	=8	=8	=8
1A	0.r	2r	1a
.	.	2e\	.
1D	.	2f\	2r
.	.	2.d\	2a/
1r	.	.	2b-\
.	.	4B-\	.
.	.	[2c\	2g/
=9	=9	=9	=9
0.r	0.r	4c\]	2a/
.	.	4B-\	.
.	.	2G/	2b-\
.	.	2A/	2cc\
.	.	4B-\	2.dd\
.	.	4c\	.
.	.	4d\	.
.	.	4e\	4cc\
.	.	[2f\	[2a/
=10	=10	=10	=10
1r	0.r	2f\]	4a/]
.	.	.	4g/
.	.	1d	2f/
2r	.	.	1e
2A\	.	2c\	.
2B-\	.	2d\	2d/
2A\	.	[2c\	2f/
=11	=11	=11	=11
2.c\	0.r	4c\]	2e/
.	.	4d\	.
.	.	2e\	2a/
4A\	.	.	.
2B-\	.	2d\	2g/
2A\	.	2e\	2cc\
2d\	.	2f\	2b-\
2c\	.	[2g\	2ee-i\
=12	=12	=12	=12
2B-\	0.r	2g\]	2dd\
2.A\	.	2.a\	2.cc\
4B-\	.	4g\	4b-\
2c\	.	2e\	4a/
.	.	.	4g/
2G\	.	1d	2b-\
4F\	.	.	2a/
4D\	.	.	.
=13	=13	=13	=13
1.G	0.r	2r	2b-\
.	.	2.d\	4a/
.	.	.	4g/
.	.	.	2b-\
.	.	4e\	.
2F\	.	1f	2.a/
2D\	.	.	.
.	.	.	4b-\
2C/	.	2e\	2cc\
=14	=14	=14	=14
2G\	0.r	1d	2b-\
2D\	.	.	2.a/
1E	.	1G	.
.	.	.	4g/
.	.	.	1g
1D	.	1A	.
.	.	.	2f#i/
=15	=15	=15	=15
2G\	0G	2G/	1g
2.B-\	.	1d	.
.	.	.	1r
4c\	.	.	.
2d\	.	2B-\	.
2r	[1B-	1d	1f
2D\	.	.	.
=16	=16	=16	=16
1.E-	1B-]	1G	1g
.	0G	1r	4g/
.	.	.	4f/
2C/	.	.	4e/
.	.	.	4d/
1E-i	.	1g	1c
=17	=17	=17	=17
2D\	0A	2f\	2d/
2C/	.	2e\	2e/
2D\	.	2d\	1f
2F\	.	1c	.
2C/	1A	.	2e/
2D\	.	2f\	2f/
=18	=18	=18	=18
2E\	1G	2e\	2g/
2G\	.	2d\	2b-\
2F\	1c	2f\	2a/
2E\	.	2g\	2g/
2F\	1c	1a	2f/
2A\	.	.	2cc\
=19	=19	=19	=19
2G\	1d	2d\	2b-\
1F	.	1f	2.a/
.	2c\	.	.
.	.	.	4g/
2G\	2B-\	1d	1g
1D	1A	.	.
.	.	2d\	2f/
=20	=20	=20	=20
2r	1G	2g\	2e/
2G\	.	2b-\	2d/
2D\	2A/	2a\	2f/
2G\	2B-\	2d\	2g/
2F\	2A/	2f\	2a/
2G\	2G/	4d\	2b-\
.	.	[4g\	.
=21	=21	=21	=21
2A\	2r	4g\]	2cc\
.	.	4f\	.
2.G\	1B-	1g	1dd
4D\	.	.	.
1F	2A/	1a	2cc\
.	2c\	.	2a/
2G\	2B-\	2g\	2dd\
=22	=22	=22	=22
2A\	2c\	2e\	2cc\
1G	2d\	4g\	2.b-\
.	.	4f\	.
.	2G/	2d\	.
.	.	.	4a/
2F\	2A/	2f\	1a
1G	1B-	1d	.
.	.	.	2g/
=23	=23	=23	=23
2D\	1A	2.f\	1a
2.F\	.	.	.
.	.	4g\	.
.	1c	4a\	1r
4E\	.	4g\	.
4C/	.	2e\	.
4D\	.	.	.
4E\	2.B-\	2g\	1r
4F\	.	.	.
2G\	.	2d\	.
.	4A/	.	.
=24	=24	=24	=24
2B-\	2G/	2g\	1r
2A\	2F/	2.a\	.
1r	2G/	.	1r
.	.	4g\	.
.	2B-\	1g	.
1r	1A	.	1cc
.	.	2f#i\	.
=25	=25	=25	=25
1.d	1G	1g	2b-\
.	.	.	4a/
.	.	.	4g/
.	1r	2r	2f/
2e-i\	.	1g	2g/
1d	1r	.	1a
.	.	2f#i\	.
=26	=26	=26	=26
2G\	1d	2.g\	1g
2.B-\	.	.	.
.	.	4f\	.
.	1f	2d\	2a/
4A\	.	.	.
2F\	.	2c\	1a
1B-	1d	2d\	.
.	.	2B-\	2g/
=27	=27	=27	=27
1A	1e	1c	1a
1c	1e	1r	1g
1C	1e	[1g	1cc
=28	=28	=28	=28
1G	1d	1g]	1b-
1C	1g	1e	1cc
2G\	1g	2d\	2dd\
2E\	.	2c\	2ee\
=29	=29	=29	=29
1D	1a	2d\	1ff
.	.	2r	.
2r	1.g	2c\	2ee\
2G\	.	2B-\	2dd\
2C/	.	2c\	2ee\
2D\	2f\	2A/	[2dd\
=30	=30	=30	=30
1A	1e	2r	2dd\]
.	.	1a	2cc\
1B-	1d	.	1dd
.	.	2g\	.
1A	1e	[1a	[1cc
=31	=31	=31	=31
1F	1f	0a]	1cc]
1A	1e	.	1cc
1G	1g	[1d	2b-\
.	.	.	[2dd\
=32	=32	=32	=32
1D	1f	1d]	4dd\]
.	.	.	4cc\
.	.	.	1a
1A	1e	1c	.
.	.	.	1cc
1r	1d	1f	.
.	.	.	2b-\
=33	=33	=33	=33
1.F	1c	2.f\	2cc\
.	.	.	1a
.	.	4g\	.
.	1d	2a\	.
1G	.	1g	1dd
.	1e	.	.
2A\	.	2e\	2cc\
=34	=34	=34	=34
2F\	1f	1a	2a/
2D\	.	.	1dd
1r	1e	1.g	.
.	.	.	2cc\
2G\	[1dl	.	2b-\
2F\	.	2a\	2a/
=35	=35	=35	=35
1G	0.d_	2.b-\	2.dd\
.	.	4a\	4cc\
2r	.	2f\	2a/
1G	.	2g\	1b-
.	.	1d	.
2F\	.	.	2a/
=36	=36	=36	=36
1G	0.d_	2G/	2.b-\
.	.	2.B-\	.
.	.	.	4a/
1D	.	.	2f/
.	.	4A/	.
.	.	2F/	1a
2r	.	1B-	.
[2G\	.	.	2g/
=37	=37	=37	=37
2G\]	0.d_	1A	1a
2F\	.	.	.
1G	.	2B-\	2d/
.	.	2G/	1g
1D	.	1A	.
.	.	.	2f/
=38	=38	=38	=38
2G\	0.d_	2B-\	2g/
1F	.	2A/	2.a/
.	.	2d\	.
.	.	.	4g/
2G\	.	2B-\	1g
1D	.	1A	.
.	.	.	2f#i/
=39	=39	=39	=39
0.Gl	0.d]	0.Gl	0.gl
!!LO:LB:i:g=z
=40||	=40||	=40||	=40||
*M2/1	*M2/1	*M2/1	*M2/1
*met(C|)	*met(C|)	*met(C|)	*met(C|)
!!section: Agnus Dei II
!!!OMD: Agnus Dei II
1G	0r	[0G	0r
1d	.	.	.
=41	=41	=41	=41
1e-i	0r	0G_	0r
[1d	.	.	.
=42	=42	=42	=42
2d\]	0r	0G]	0r
2c\	.	.	.
[1B-	.	.	.
=43	=43	=43	=43
2B-\]	0r	0d	0r
2A\	.	.	.
[1G	.	.	.
=44	=44	=44	=44
1G]	0r	0e-i	0r
1C	.	.	.
=45	=45	=45	=45
1G	0r	[0d	0r
2F\	.	.	.
[2B-\	.	.	.
=46	=46	=46	=46
4B-\]	0r	0d_	0r
4A\	.	.	.
1G	.	.	.
2F\	.	.	.
=47	=47	=47	=47
2G\	0r	0d]	0r
2D\	.	.	.
2F\	.	.	.
2G\	.	.	.
=48	=48	=48	=48
2A\	0r	0c	0r
4G\	.	.	.
4F\	.	.	.
1E	.	.	.
=49	=49	=49	=49
1D	0r	1d	0r
1A	.	2c\	.
.	.	[2f\	.
=50	=50	=50	=50
1B-	0r	4f\]	0r
.	.	4e\	.
.	.	1d	.
2r	.	.	.
2A\	.	2c\	.
=51	=51	=51	=51
2B-\	0r	2d\	0r
2.d\	.	2G/	.
.	.	2B-\	.
4c\	.	.	.
2A\	.	2c\	.
=52	=52	=52	=52
2B-\	0r	2d\	0r
1G	.	4c\	.
.	.	4B-\	.
.	.	1A	.
2F#i\	.	.	.
=53	=53	=53	=53
0G	0r	1G	0d
.	.	[1g	.
=54	=54	=54	=54
0D	0r	2g\]	0a
.	.	4f\	.
.	.	4e\	.
.	.	1f	.
=55	=55	=55	=55
0G	0r	2r	0b-
.	.	2.g\	.
.	.	4f\	.
.	.	[2d\	.
=56	=56	=56	=56
0F	0r	4d\]	0a
.	.	4e\	.
.	.	2.f\	.
.	.	4e\	.
.	.	[2c\	.
=57	=57	=57	=57
0C	0r	4c\]	0g
.	.	4d\	.
.	.	2.e\	.
.	.	4f\	.
.	.	[2g\	.
=58	=58	=58	=58
0BB-	0r	2g\]	0dd
.	.	4f\	.
.	.	4e\	.
.	.	1f	.
=59	=59	=59	=59
1C	0r	1r	0ee-i
1C	.	1g	.
=60	=60	=60	=60
2.G\	0r	2.b-\	1dd
4F\	.	4a\	.
2E\	.	2g\	2cc\
[2D\	.	[2a\	[2ff\
=61	=61	=61	=61
2D\]	0r	2a\]	4ff\]
.	.	.	4ee\
2F\	.	4g\	1dd
.	.	4f\	.
2G\	.	1e	.
2A\	.	.	2cc#i\
=62	=62	=62	=62
2B-\	0r	2d\	2dd\
2c\	.	2e\	2g/
2d\	.	2f\	2b-\
2e-i\	.	2g\	2cc\
=63	=63	=63	=63
1d	0r	2a\	2dd\
.	.	1g	4cc\
.	.	.	4b-\
1D	.	.	1a
.	.	2f#i\	.
=64	=64	=64	=64
1r	0r	0gl	0gl
1Gl	.	.	.
!!LO:LB:i:g=z
=65||	=65||	=65||	=65||
*>B	*>B	*>B	*>B
*clefF4	*clefGv2	*clefGv2	*clefG2
*k[b-]	*k[b-]	*k[b-]	*k[b-]
*M2/1	*M2/1	*M2/1	*M2/1
*met(C|)	*met(C|)	*met(C|)	*met(C|)
!!section: Qui tollis
!!!OMD: Qui tollis
0r	[0B-	1.d	0r
.	.	2e\	.
=66	=66	=66	=66
0r	0B-]	1f	0r
.	.	[1g	.
=67	=67	=67	=67
0r	0A	2g\]	0r
.	.	4f\	.
.	.	4e\	.
.	.	4f\	.
.	.	4e\	.
.	.	4d\	.
.	.	4c\	.
=68	=68	=68	=68
0r	0G	2B-\	0r
.	.	4c\	.
.	.	4d\	.
.	.	2e-i\	.
.	.	[2d\	.
=69	=69	=69	=69
0r	0F	2d\]	0r
.	.	4c\	.
.	.	4B-\	.
.	.	1A	.
=70	=70	=70	=70
0r	0G	2r	0r
.	.	1B-	.
.	.	4A/	.
.	.	4G/	.
=71	=71	=71	=71
0r	[0A	1F	0r
.	.	2r	.
.	.	[2c\	.
=72	=72	=72	=72
1r	0A]	4c\]	0r
.	.	4d\	.
.	.	2e\	.
1D	.	2f\	.
.	.	4e\	.
.	.	4d\	.
=73	=73	=73	=73
1.F	1A	1c	0r
.	[1c	1r	.
4E\	.	.	.
4D\	.	.	.
=74	=74	=74	=74
2.C/	0c_	2.g\	0r
4D\	.	4f\	.
2E\	.	2g\	.
[2F\	.	[2a\	.
=75	=75	=75	=75
2F\]	1c]	2a\]	0r
4E\	.	4g\	.
4D\	.	4f\	.
1A	1c	1e	.
=76	=76	=76	=76
2B-\	[0d	0r	4d/
.	.	.	4e/
4A\	.	.	4f/
4G\	.	.	4g/
2F\	.	.	2a/
[2G\	.	.	[2b-\
=77	=77	=77	=77
2G\]	0d_	0r	2b-\]
2F\	.	.	2a/
2.B-\	.	.	2g/
.	.	.	[2b-\
4A\	.	.	.
=78	=78	=78	=78
2G\	0d_	0r	2b-\]
2F\	.	.	2a/
2.G\	.	.	2b-\
.	.	.	[2dd\
4F\	.	.	.
=79	=79	=79	=79
2D\	0d]	0r	4dd\]
.	.	.	4cc\
1G	.	.	4b-\
.	.	.	4a/
.	.	.	2g/
2G\	.	.	2b-\
=80	=80	=80	=80
2D\	1d	0r	2a/
1G	.	.	2g/
.	1d	.	1a
2F#i\	.	.	.
=81	=81	=81	=81
2G\	2B-\	0r	0r
2.B-\	2.d\	.	.
4c\	4c\	.	.
[2d\	[2B-\	.	.
=82	=82	=82	=82
4d\]	4B-\]	0r	0r
4c\	4A/	.	.
4B-\	2G/	.	.
4A\	.	.	.
2G\	2B-\	.	.
2B-\	4A/	.	.
.	4G/	.	.
=83	=83	=83	=83
2A\	2F/	0r	0r
2G\	1G	.	.
1A	.	.	.
.	2F#i/	.	.
=84	=84	=84	=84
*M2/1	*	*M2/1	*
*met(3)	*	*met(3)	*
3%2G	0r	3%2d	0r
3%2G	.	3%2d	.
3%2c	.	3%2e	.
=85	=85	=85	=85
3%4B-	0r	3%2f	3%2ddV
.	.	3%2g	3%2dd
3%2A	.	3%2c	3%2eeZ
=86	=86	=86	=86
*	*M2/1	*	*
*	*met(3)	*	*
3%4D	3%2d	3%2d	3%2.ffV
.	3%2d	3%4a	.
.	.	.	3ee\
3%2A	3%2e	.	3%2ccZ
=87	=87	=87	=87
3%2d	3%2.f	3%2b-	3%2rV
3%2B-	.	3%2g	3%2dd
.	3e\	.	.
3%2A	3%2c	[3%2a	3%2eeZ
=88	=88	=88	=88
3%2r	3%2d	3%2a]	3%2ffV
3%4c	3%2.g	3%2r	3%2.ee
.	.	3%2e	.
.	3f\	.	3dd\Z
=89	=89	=89	=89
3%2B-	3%2d	3%2g	3%4ddV
3%4A	3%4e	3%4a	.
.	.	.	3%2cc#iZ
=90	=90	=90	=90
3%2D	3%4d	3%2f	3%2ddV
3%2G	.	3%2d	3%2g
3%2F	3%2r	3%2f	3%2aZ
=91	=91	=91	=91
3%2G	3%4G	3%2B-	3%4b-V
3%2B-	.	3%2d	.
3%2A	3%2A	3%2c	3%2ccZ
=92	=92	=92	=92
3%4G	3%4B-	3B-\	3%2.ddV
.	.	3c\	.
.	.	3d\	.
.	.	3e\	3cc\
[3%2F	[3%2c	[3%2f	3%2aZ
=93	=93	=93	=93
3%2F]	3%4.c]	3%2f]	3cc\V
.	.	.	3b-\
3%4E	.	3%2g	3%4gZ
.	.	3%2G	.
=94	=94	=94	=94
3%2D	3%2d	3%2A	3%2fV
3%2C	3%2e	3%2c	3%2g
3%2F	3%2c	[3%2A	[3%2aZ
=95	=95	=95	=95
3%2D	3d\	3%2A]	3a/]V
.	3c\	.	3f/
3d\	3B-\	3B-\	3g/
3c\	3A/	3c\	3a/
3B-\	3%2G	3d\	[3%2b-Z
3A\	.	3c\	.
=96	=96	=96	=96
3%2G	3%2r	3d\	3b-\]V
.	.	3e\	3g/
3%2D	3%2d	3%2f	3a/
.	.	.	3b-\
[3%2A	3%2e	3%2e	3%2ccZ
=97	=97	=97	=97
3%2A]	3%2f	3%2c	3cc\V
.	.	.	3a/
3%2G	3%2g	3%2d	3%2b-
3%2A	3%2e	3%2c	3%2ccZ
=98	=98	=98	=98
3%2.B-	3%2d	3%2f	3%2.ddV
.	3%4f	3%2d	.
3A\	.	.	3cc\
3%2F	.	3%2c	3%2aZ
=99	=99	=99	=99
3%2.F	3%2f	3%2r	3cc\V
.	.	.	3b-\
.	3%2c	3%2f	3a/
3E\	.	.	3g/
3%2C	[3%2e-	3%2g	3%2ccZ
=100	=100	=100	=100
3%2E-	3e-\]	3%2g	3%2b-V
.	3d\	.	.
3%2F	3%2c	3%2.f	3%2.a
3%2D	3%2d	.	.
.	.	3e\	3g/Z
=101	=101	=101	=101
3%2E-i	3%2G	3%2c	3%4gV
3%4D	3%4A	3%4d	.
.	.	.	3%2f#iZ
=102	=102	=102	=102
3%4.Gl	3%4.Gl	3%4.dl	0gl
!!LO:LB:i:g=z
=103||	=103||	=103||	=103||
*>C	*>C	*>C	*>C
*clefF4	*clefGv2	*clefGv2	*clefG2
*k[b-e-]	*k[b-]	*k[b-e-]	*k[b-]
*M2/1	*M2/1	*M2/1	*M2/1
*met(C|)	*met(C|)	*met(C|)	*met(C|)
!!section: Agnus Dei III
!!!OMD: Agnus Dei III
0C	1.c	1.e-	0g
.	4B-\	4d\	.
.	4A/	4c\	.
=104	=104	=104	=104
0E-	1G	2B-\	1g
.	.	2c\	.
.	1B-	1G	1g
=105	=105	=105	=105
0C	2.c\	1.g	0e
.	4B-\	.	.
.	2.G/	.	.
.	.	4f\	.
.	4A/	4e-\	.
=106	=106	=106	=106
0BB-	0B-	1d	2.f/
.	.	.	4d/
.	.	1d	2f/
.	.	.	[2g/
=107	=107	=107	=107
0C	1G	2c\	4g/]
.	.	.	4f/
.	.	4B-\	4e/
.	.	4A/	4d/
.	1c	1G	1e
=108	=108	=108	=108
0D	2F/	1r	2r
.	4G/	.	2.d/
.	4A/	.	.
.	2B-\	[1d	.
.	.	.	4e/
.	[2A/	.	[2f/
=109	=109	=109	=109
0D	2A/]	1d]	2f/]
.	1G	.	2g/
.	.	2d\	1a
.	2F#i/	[2d\	.
=110	=110	=110	=110
0r	2G/	4d\]	1.b-
.	.	4c\	.
.	1d	4B-\	.
.	.	4A/	.
.	.	1G	.
.	4c\	.	4a/
.	4B-\	.	4g/
=111	=111	=111	=111
*	*	*k[b-]	*
0r	2A/	2c\	2f/
.	2G/	2d\	2.g/
.	2c\	2e\	.
.	.	.	4a/
.	[2d\	[2f\	[2b-\
=112	=112	=112	=112
0r	2d\]	2f\]	2b-\]
.	2c\	2e\	1a
.	2B-\	2.d\	.
.	4A/	.	2g/
.	4G/	4e\	.
=113	=113	=113	=113
[0D	0F	1f	0a
.	.	2e\	.
.	.	[2d\	.
=114	=114	=114	=114
0D]	0f	2d\]	1r
.	.	1c	.
.	.	.	1dd
.	.	2Bni\	.
=115	=115	=115	=115
0C	0g	0c	1ee-
.	.	.	1ee-i
=116	=116	=116	=116
0F	1.f	0r	2dd\
.	.	.	2.cc\
.	.	.	4b-\
.	2e\	.	4a/
.	.	.	4g/
=117	=117	=117	=117
0F	1d	1.f	2f/
.	.	.	1b-
.	1c	.	.
.	.	2e\	2a/
=118	=118	=118	=118
0r	1B-	2d\	1b-
.	.	2B-\	.
.	2A/	2c\	1r
.	2G/	[2B-\	.
=119	=119	=119	=119
0r	1c	2B-\]	0r
.	.	2A/	.
.	2G/	1B-	.
.	2d\	.	.
=120	=120	=120	=120
0r	2c\	2A/	0r
.	1e-i	2G/	.
.	.	2c\	.
.	4d\	4B-\	.
.	4c\	4A/	.
=121	=121	=121	=121
0r	2B-\	2G/	0r
.	2G/	1g	.
.	1A	.	.
.	.	2f#i\	.
=122	=122	=122	=122
0G	0G	1g	1.dd
.	.	2r	.
.	.	2G/	4cc\
.	.	.	4b-\
=123	=123	=123	=123
1F	0r	2.c\	2a/
.	.	.	2.cc\
.	.	4B-\	.
1E-	.	4A/	.
.	.	4G/	4b-\
.	.	[2B-\	4a/
.	.	.	4g/
=124	=124	=124	=124
0D	1.d	2B-\]	2f/
.	.	4A/	1g
.	.	4G/	.
.	.	1A	.
.	2c\	.	2f#i/
=125	=125	=125	=125
1r	2d\	0G	1.g
.	1e-i	.	.
1C	.	.	.
.	4d\	.	2e/
.	4c\	.	.
=126	=126	=126	=126
0D	2B-\	1r	0f
.	2A/	.	.
.	[1d	1A	.
=127	=127	=127	=127
0E-	2d\]	1G	1g
.	4c\	.	.
.	4B-\	.	.
.	2c\	1G	2a/
.	2B-\	.	[2b-\
=128	=128	=128	=128
0D	[0d	0A	2b-\]
.	.	.	4a/
.	.	.	4g/
.	.	.	1f
=129	=129	=129	=129
0r	0d]	1G	2r
.	.	.	2g/
.	.	1B-	2f/
.	.	.	[2g/
=130	=130	=130	=130
0r	2r	2c\	2g/]
.	2G/	1d	2b-\
.	2F/	.	2a/
.	2c\	2e\	2g/
=131	=131	=131	=131
0r	2B-\	2d\	1b-
.	1F	1c	.
.	.	.	2a/
.	2G/	4B-\	[2b-\
.	.	4c\	.
=132	=132	=132	=132
0r	1B-	4d\	2b-\]
.	.	4e\	.
.	.	1f	2dd\
.	2A/	.	2cc\
.	2G/	[2g\	2b-\
=133	=133	=133	=133
0r	2.B-\	2g\]	1dd
.	.	2f\	.
.	4A/	.	.
.	2G/	2g\	2ee\
.	[2F/	[2a\	[2ff\
=134	=134	=134	=134
0r	2F/]	2a\]	4ff\]
.	.	.	4ee\
.	2G/	4g\	1dd
.	.	4f\	.
.	1A	1e	.
.	.	.	2cc\
=135	=135	=135	=135
0r	2B-\	1d	1dd
.	1G	.	.
.	.	2r	1b-
.	2B-\	[2f\	.
=136	=136	=136	=136
0r	2A/	0f_	2cc\
.	1B-	.	2dd\
.	.	.	2b-\
.	2F/	.	[2cc\
=137	=137	=137	=137
0F	2A/	1.f]	4cc\]
.	.	.	4b-\
.	2B-\	.	4a/
.	.	.	4g/
.	1c	.	1a
.	.	2f\	.
=138	=138	=138	=138
0E-	1G	1g	1b-
.	1r	2f\	2a/
.	.	[2e-\	[2g/
=139	=139	=139	=139
0D	0r	2e-\]	2g/]
.	.	4d\	4f/
.	.	4c\	4e/
.	.	1B-	1f
=140	=140	=140	=140
0C	1.G	0c	1e-
.	.	.	1e-i
.	2A/	.	.
=141	=141	=141	=141
0BB-	0B-	1F	1d
.	.	1f	1dd
=142	=142	=142	=142
1C	1G	1e	1cc
1D	1F	[1d	2b-\
.	.	.	[2a/
=143	=143	=143	=143
0E-	0G	2d\]	2a/]
.	.	4c\	2g/
.	.	4B-\	.
.	.	1c	[1g
=144	=144	=144	=144
0D	0A	[0dl	2g/]
.	.	.	2f#i/
.	.	.	2f#i/
.	.	.	2e/
=145	=145	=145	=145
0GGl	0Gl	0d]	0gl
==	==	==	==
*-	*-	*-	*-
!!!RDF**kern: l=long note in original notation
!!!RDF**kern: i=editorial accidental
!!!RDF**kern: V=start of tuplet marker
!!!RDF**kern: Z=end of tuplet marker
!!!ENC:	Jesse Rodin 8/12/2013
!!!END:	2013/08/12/
!!!EED:	Jesse Rodin
!!!EEV:	2016/02/08/
!!!ONB:	Translated from MusicXML and edited on 2016/02/08/ by Craig Sapp
!!muse2ps: T^@{OPR}^u^@{ONM}{. }@{OTL}^C^@{COM}^i2I150v85,85,85,150Q16c89
